Avidclan_Website/assets/images/icons/two-way-binding-ic.svg

<?xml version="1.0" encoding="utf-8"?>
<!-- Generator: Adobe Illustrator 24.1.1, SVG Export Plug-In . SVG Version: 6.00 Build 0)  -->
<svg version="1.1" id="Layer_1" xmlns="http://www.w3.org/2000/svg" xmlns:xlink="http://www.w3.org/1999/xlink" x="0px" y="0px"
	 viewBox="0 0 305.4 255.7" style="enable-background:new 0 0 305.4 255.7;" xml:space="preserve">
<style type="text/css">
	.st0{fill:#007AFB;}
</style>
<g>
	<path class="st0" d="M218.4,4.2L151.5,71l20.1,20.1l42.6-42.6v169.4h28.4V48.5l42.6,42.6L305.4,71L238.5,4.2
		C232.9-1.4,224-1.4,218.4,4.2L218.4,4.2z"/>
	<path class="st0" d="M76.9,255.7c3.8,0,7.4-1.5,10-4.2l66.9-66.9l-20.1-20.1l-42.6,42.6V37.9H62.7v169.4l-42.6-42.6L0,184.7
		l66.9,66.9C69.5,254.2,73.1,255.7,76.9,255.7L76.9,255.7z"/>
</g>
</svg>

<svg width="306" height="256" viewBox="0 0 306 256" fill="none" xmlns="http://www.w3.org/2000/svg">
<g clip-path="url(#clip0_493_479)">
<path d="M218.4 4.2L151.5 71L171.6 91.1L214.2 48.5V217.9H242.6V48.5L285.2 91.1L305.4 71L238.5 4.2C232.9 -1.4 224 -1.4 218.4 4.2Z" fill="#0E53BE"/>
<path d="M76.9 255.7C80.7 255.7 84.3 254.2 86.9 251.5L153.8 184.6L133.7 164.5L91.1 207.1V37.9H62.7V207.3L20.1 164.7L0 184.7L66.9 251.6C69.5 254.2 73.1 255.7 76.9 255.7Z" fill="#0E53BE"/>
</g>
<defs>
<clipPath id="clip0_493_479">
<rect width="305.4" height="255.7" fill="white"/>
</clipPath>
</defs>
</svg>
